X:1
T:River flows in you
T:River flows in you
T:for guitar duo
T:Composed by Yiruma Transcription by Theo Thomassen ( Jan. 2020) 
T:De gitaarclub 2020
T:De gitaarclub 2020
T:De gitaarclub 2020
T:De gitaarclub 2020
T:De gitaarclub 2020
C:Yiruma
Z:De gitaarclub 2020
%%score 1 ( 2 3 )
L:1/8
Q:1/4=65
M:4/4
K:A
V:1 treble-8 nm="Guitar 1"
V:2 treble-8 nm="Guitar 2"
V:3 treble-8 
V:1
!p! !4!a!3!g!4!ag a!3!e!4!a!1!d- | d6- d"^3II"A/c/ | !4!a!3!g!4!ag a!3!e!4!a!1!d- | %3
 d6- d"^3II"A/c/ | !4!a!3!g/!4!a/- a/!1!A/!3!g/!4!a/- a/!1!A/!0!e/!4!a/- a/!1!A/!2!d/A/ | %5
{/!0!B} !1!c!2!d"^3II"!-(!!4![Ae]!1!c !-)!!1!!0![GB]3 (!2!A/!1!G/) | %6
"^4II" A2- A/E/(A/!3!B/) !1!c3 (!1!c/!2!d/) | !4!e3 (!2!d/!1!c/) !3!B4 | %8
"^3II"({Ac)} !4!a!3!g/!4!a/- a/!1!A/!3!g/!4!a/- a/A/!0!e/!4!a/- a/A/d/A/ | %9
{/B} c!-(!!2!d!-(!!1!e!-)!!4!c' !1!b!3!e{!1!b!4!c'} b!4!a/!3!g/ | %10
 !3!!4![ea]3 (!1!A/"^4II"!3!B/) cE A(c/!2!d/) | !4!eE c(!2!d/c/) !0!B2 !2!a/!4!b/!3!a/!1!g/ | %12
 !2!a/!4!A/!0!e/!4!A/ !2!a/!4!b/!2!a/!1!g/ !2!a/!4!A/!0!e/!4!A/ a/b/a/!-(!!1!g/ | %13
 !-)!!1!a/!-(!!3!b/!-)!!1!c'/!2!d'/ !4!e'/!1!c'/!4!b/!2!a/ !1!g!0!B a/b/a/g/ | %14
 a/A/e/A/ a/b/a/g/ a/A/e/A/ a/b/a/!-(!!1!g/ | %15
 !-)!!1!a/b/c'/d'/ e'/c'/b/a/ !1!g!0!B !2!a/(!2!a/4!4!b/4)a/g/ | %16
 a/A/e/A/ a/(a/4b/4)a/g/ a/A/e/A/ a/(a/4b/4)a/!-(!!1!g/ | %17
 !-)!!1!a/b/c'/d'/ e'/c'/b/a/ gB a/(a/4b/4)a/g/ | %18
 a/A/e/A/ a/(a/4b/4)a/g/ a/A/e/A/ a/b/a/!-(!!1!g/ | %19
[M:5/4] !-)!a/b/c'/d'/ e'/c'/b/a/ !1!g!0!B !1!G !fermata!!2!E2"^3II" A/c/ || %20
[M:4/4] ag/a/- a/A/g/a/- a/A/g/a/- a/A/d/A/ |{/B} cd"^3II"[Ae]c !1!!0![GB]3 (!2!A/!1!G/) | %22
"^4II" ((([EA]2 [EA]/)))E/A/B/ c/E/A/B/ c/E/c/d/ | e/E/c/d/ e/E/d/c/ B/E/d/c/ !0!B!1!G | %24
{/c} !4!a!3!g/!4!a/- a/!1!A/!3!g/!4!a/- a/A/!0!e/!4!a/- a/!1!A/!2!d/!1!A/ | %25
{/!0!B} !1!c!-(!!2!d!-(!!1!e!-)!!4!c' !1!b!3!e{!3!e!4!c'} !1!b!4!a/!3!g/ | %26
 !3!!4![ea]3"^4II" (A/B/) c/E/(A/B/) c/E/(c/d/) | %27
 e/E/(c/d/) e/E/(d/c/) B/!2!E/!1!G/!0!B/ !2!a/!4!b/a/g/ | %28
 a/A/e/A/ !2!a/(a/4b/4)a/g/ a/A/e/A/ a/(a/4b/4)a/!-(!!1!g/ | %29
 !-)!!1!a/!-(!b/!-)!c'/d'/ e'/c'/{!4!b!1!c'}!4!b/!-(!!2!a/ !-)!!3!g/!1!A/!0!e/A/ !2!a/(a/4b/4)a/g/ | %30
 a/A/e/A/ a/(a/4b/4)a/g/ a/A/e/A/ a/(a/4b/4)a/!-(!!1!g/ | %31
 !-)!!1!a/!-(!b/!-)!c'/d'/ e'/c'/{bc'}b/!-(!!2!a/ !-)!!3!g/!1!A/e/A/ a/(a/4b/4)a/g/ | %32
 a/A/e/A/ a/b/a/g/ a/A/e/A/ a/(a/4b/4)a/!-(!!1!g/ | %33
 !-)!!1!a/!-(!b/!-)!c'/d'/ e'/c'/b/!-(!a/ !-)!g!0!B !2!a/(a/4b/4)a/g/ | %34
 a/A/e/A/ a/(a/4b/4)a/g/ a/A/e/A/ a/(a/4b/4)a/!-(!!1!g/ | %35
 !-)!!1!a/b/c'/d'/ e'/c'/b/!-(!!2!a/ !-)!!3!g!0!B!1!G!2!E |"^3II"{Ac} !4!a!3!gag [Aca]!0!ea!2!d | %37
 [Ac]d[Ae]c !3!B2 !2!A!1!G |"^4II" !arpeggio!!3![CEA]2 !1!E!1!A/!4!B/ !1!c!1!E !1!A!1!c/!2!d/ | %39
 !4!eE c(!2!d/c/) !3!B7/2 A/4c/4 | agag !arpeggio!!3!!4![Aea]!0!e!4!a!1!d | %41
{/!0!B} !1!c!2!d!-(!!1!e!-(!!4!c' !1!!-)!!4![eb]3"^4II" A/ x/ | [EA]3 (A/!3!B/) cE A(c/!2!d/) | %43
 !4!eE A(!2!d/c/) !3!B2 E2 | !1!A!0!A,!2!C!3!F !fermata!!1!!4![Aa]4 |] %45
V:2
!p!"^3II" !3!Fc f2 !0!D!1!A !4!e2- | e8 | Fc f2 DA e2- | e8 | Fc f2 DAeD | %5
"^4II" A,E c2 E!3!B !4!e2 | Fc f2 !0!D!1!A !4!e2 | A,E c2 !1!E!3!B !4!g2 | Fc f2 DAeD | %9
 A,EcA, EB e2 | Fc f2 DB e2 | A,E c2 EB e2 | FcfF DAeD | A,EcA, EBeE | FceF DBeD | A,EcA, EBeE | %16
 F,CFF, DAcD | A,EcA, E,B,GE, | F,CFF, DAeD |[M:5/4] A,EcA, !0!E,!2!B, !fermata!!1!G3 x || %20
[M:4/4] Fc f2 DAeD | A,EcA, EB e2 | F, c3 DA d2 | A,EcA, EB e2 | FcfF DAeD | A,EcA, EBeE | %26
 Fc f2 DAdD | A,EcA, !0!E,!2!B,!1!GE, |"^VII" F,!2!!C!1!f!3!F !4!!D!1!A!0!e!4!D | A,EcA, E,B,GE, | %30
 F,CfF DAeD | A,EcA, E,B,GE, | F,CfF DAeD | A,EcA, E,B,GE, | F,CfF DAeD | A,EcA, E,B, G2 | %36
"^II" !3![Fc]4 E,!4!D!3!F!1!E | E,!3!C A,2 !2!!1![EG]4 | !1!F, !3!C3 !0!D!1!A !0!e2 | %39
 A,E c2 EB e2 | Fc f2 DAeD | A,E c2 EB g2 | F,!2!C !3!F2 !4!D!1!A !2!d2 | A,E c2 E,B, G2 | %44
"^II" F,!2!C !3!F2 !fermata!!1!c4 |] %45
V:3
 F2 x2 D2 x2 | x8 | F2 x2 D2 x2 | x8 | F2 x2 D2 x2 | A,2 x2 !1!E2 x2 | !3!F2 x2 D2 x2 | %7
 !0!A,2 x2 E2 x2 | F2 x2 D2 x2 | A,2 x2 E2 x2 | F2 x2 D2 x2 | A,2 x2 E2 x2 | F2 x2 D2 x2 | %13
 A,2 x2 E2 x2 | F2 x2 D2 x2 | A,2 x2 E2 x2 | F,2 x2 D2 x2 | A,2 x2 E,2 x2 | F,2 x2 D2 x2 | %19
[M:5/4] A,2 x2 E,2 x2 x2 ||[M:4/4] F2 x2 D2 x2 | A,2 x2 E2 x2 | F, x x2 D2 x2 | A,2 x2 E2 x2 | %24
 F2 x2 D2 x2 | A,2 x2 E2 x2 | F2 x2 D2 x2 | A,2 x2 E,2 x2 | F,2 x2 D2 x2 | A,2 x2 E,2 x2 | %30
 F,2 x2 D2 x2 | A,2 x2 E,2 x2 | F,2 x2 D2 x2 | A,2 x2 E,2 x2 | F,2 x2 D2 x2 | A,2 x2 E,2 x2 | %36
 F,4 E,2 x2 | E,2 A,2 z4 | F, x x2 D2 x2 | A,2 x2 E2 x2 | F2 x2 D2 x2 | A,2 x2 E2 x2 | %42
 F,2 x2 D2 x2 | A,2 x2 E,2 x2 | F,2 x2 x4 |] %45

